Catalina-dark/actions/16/configure-toolbars.svg

<?xml version="1.0" encoding="UTF-8" standalone="no"?>
<svg
   xmlns:dc="http://purl.org/dc/elements/1.1/"
   xmlns:cc="http://creativecommons.org/ns#"
   xmlns:rdf="http://www.w3.org/1999/02/22-rdf-syntax-ns#"
   xmlns:svg="http://www.w3.org/2000/svg"
   xmlns="http://www.w3.org/2000/svg"
   xmlns:sodipodi="http://sodipodi.sourceforge.net/DTD/sodipodi-0.dtd"
   xmlns:inkscape="http://www.inkscape.org/namespaces/inkscape"
   width="16"
   height="16"
   viewBox="0 0 16 16"
   version="1.1"
   id="svg7"
   sodipodi:docname="configure-toolbars.svg"
   inkscape:version="0.92.4 5da689c313, 2019-01-14">
  <metadata
     id="metadata11">
    <rdf:RDF>
      <cc:Work
         rdf:about="">
        <dc:format>image/svg+xml</dc:format>
        <dc:type
           rdf:resource="http://purl.org/dc/dcmitype/StillImage" />
      </cc:Work>
    </rdf:RDF>
  </metadata>
  <sodipodi:namedview
     pagecolor="#ffffff"
     bordercolor="#666666"
     borderopacity="1"
     objecttolerance="10"
     gridtolerance="10"
     guidetolerance="10"
     inkscape:pageopacity="0"
     inkscape:pageshadow="2"
     inkscape:window-width="715"
     inkscape:window-height="480"
     id="namedview9"
     showgrid="false"
     inkscape:zoom="14.75"
     inkscape:cx="-0.54237288"
     inkscape:cy="8"
     inkscape:window-x="0"
     inkscape:window-y="26"
     inkscape:window-maximized="0"
     inkscape:current-layer="svg7" />
  <defs
     id="defs3">
    <style
       id="current-color-scheme"
       type="text/css">
   .ColorScheme-Text { color:#5c616c; } .ColorScheme-Highlight { color:#5294e2; }
  </style>
  </defs>
  <path
     style="fill:#f1f6f8;fill-opacity:0.8509804"
     class="ColorScheme-Text"
     d="M 11.017578 0 C 10.671578 0.13322 10.329016 0.30432938 10.041016 0.53710938 C 8.6637156 1.6512094 8.6466531 3.4855656 10.001953 4.6347656 C 10.284953 4.8748656 10.62575 5.0532125 10.96875 5.1953125 C 10.99675 5.2066125 10.996094 7.25 10.996094 7.25 C 12.486094 8 13.346141 9 13.994141 10 L 13.994141 5.2519531 C 14.340141 5.1186531 14.661219 4.9299656 14.949219 4.6972656 C 16.326219 3.5830656 16.344281 1.7488094 14.988281 0.59960938 C 14.705281 0.35952938 14.364484 0.1811225 14.021484 0.0390625 L 14 2.2714844 C 13.995 2.7301844 13.548141 3 12.994141 3 L 11.996094 3 C 11.442094 2.993 10.992094 2.6911219 10.996094 2.2324219 L 11.017578 0 z M 7.9960938 8 C 3.9976937 8 2 11 2 14 L 0.25 14 C 0.0001 14 0 14.157 0 14.25 L 0 15.75 C 0 16 0.13824 16 0.25 16 L 15.744141 16 C 15.939141 16.006 15.994141 15.871 15.994141 15.75 L 15.994141 14.25 C 16.015141 14.104 15.994141 14 15.744141 14 L 13.994141 14 C 13.994141 11 11.994994 8 7.9960938 8 z M 7.9960938 11 C 10.345994 11 10.996094 12.762 10.996094 14 L 4.9980469 14 C 4.9980469 12.802 5.6997937 11 7.9960938 11 z"
     id="path5" />
</svg>

<svg width="16" height="16" version="1.1" viewBox="0 0 16 16" xmlns="http://www.w3.org/2000/svg">
<defs>
<style id="current-color-scheme" type="text/css">.ColorScheme-Text { color:#5c616c; } .ColorScheme-Highlight { color:#5294e2; }</style>
</defs>
<path class="ColorScheme-Text" d="m11.018 0c-0.346 0.13322-0.68856 0.30433-0.97656 0.53711-1.3773 1.1141-1.3944 2.9485-0.039063 4.0977 0.283 0.2401 0.6238 0.41845 0.9668 0.56055 0.028 0.0113 0.027344 2.0547 0.027344 2.0547 1.49 0.75 2.35 1.75 2.998 2.75v-4.748c0.346-0.1333 0.66708-0.32199 0.95508-0.55469 1.377-1.1142 1.3951-2.9485 0.039062-4.0977-0.283-0.24008-0.6238-0.41849-0.9668-0.56055l-0.021484 2.2324c-5e-3 0.4587-0.45186 0.72852-1.0059 0.72852h-0.99805c-0.554-7e-3 -1.004-0.30888-1-0.76758l0.021484-2.2324zm-3.0215 8c-3.9984 0-5.9961 3-5.9961 6h-1.75c-0.2499 0-0.25 0.157-0.25 0.25v1.5c0 0.25 0.13824 0.25 0.25 0.25h15.494c0.195 6e-3 0.25-0.129 0.25-0.25v-1.5c0.021-0.146 0-0.25-0.25-0.25h-1.75c0-3-1.9991-6-5.998-6zm0 3c2.3499 0 3 1.762 3 3h-5.998c0-1.198 0.70175-3 2.998-3z" fill="#f1f6f8" fill-opacity=".85098"/>
</svg>
